evolvere-2-blue-mono/apps/16/lastfm.svg

<?xml version="1.0" encoding="UTF-8" standalone="no"?>
<!-- Created with Inkscape (http://www.inkscape.org/) -->

<svg
   xmlns:dc="http://purl.org/dc/elements/1.1/"
   xmlns:cc="http://creativecommons.org/ns#"
   xmlns:rdf="http://www.w3.org/1999/02/22-rdf-syntax-ns#"
   xmlns:svg="http://www.w3.org/2000/svg"
   xmlns="http://www.w3.org/2000/svg"
   xmlns:sodipodi="http://sodipodi.sourceforge.net/DTD/sodipodi-0.dtd"
   xmlns:inkscape="http://www.inkscape.org/namespaces/inkscape"
   version="1.1"
   width="16"
   height="16"
   id="svg2"
   inkscape:version="0.48.3.1 r9886"
   sodipodi:docname="lastfm.svg">
  <sodipodi:namedview
     pagecolor="#ffffff"
     bordercolor="#666666"
     borderopacity="1"
     objecttolerance="10"
     gridtolerance="10"
     guidetolerance="10"
     inkscape:pageopacity="0"
     inkscape:pageshadow="2"
     inkscape:window-width="1920"
     inkscape:window-height="1023"
     id="namedview6"
     showgrid="true"
     inkscape:zoom="41.7193"
     inkscape:cx="5.7733253"
     inkscape:cy="8.1401692"
     inkscape:window-x="-10"
     inkscape:window-y="35"
     inkscape:window-maximized="1"
     inkscape:current-layer="svg2"
     inkscape:snap-global="false">
    <inkscape:grid
       type="xygrid"
       id="grid2982" />
  </sodipodi:namedview>
  <defs
     id="defs4" />
  <metadata
     id="metadata7">
    <rdf:RDF>
      <cc:Work
         rdf:about="">
        <dc:format>image/svg+xml</dc:format>
        <dc:type
           rdf:resource="http://purl.org/dc/dcmitype/StillImage" />
        <dc:title />
      </cc:Work>
    </rdf:RDF>
  </metadata>
  <path
     id="path2996"
     inkscape:connector-curvature="0"
     d="m 4.59375,3.90625 c -1.0461944,0 -1.976642,0.4104128 -2.625,1.125 -0.648358,0.7145872 -1,1.6978162 -1,2.8125 l 0,0.3125 c 0,1.4892582 0.8258596,2.685553 1.9375,3.28125 1.1116404,0.595697 2.5040699,0.617835 3.75,0 l -0.625,-1.28125 c -0.8372653,0.415186 -1.7780584,0.370122 -2.46875,0 -0.6906916,-0.3701225 -1.15625,-1.0037445 -1.15625,-2 l 0,-0.3125 C 2.40625,7.0194869 2.6560505,6.4135257 3.03125,6 3.4064495,5.5864743 3.9014027,5.34375 4.59375,5.34375 c 0.8255823,0 1.225663,0.2703985 1.59375,0.75 0.368087,0.4796015 0.6397136,1.2128227 0.9375,2.03125 0.2977864,0.8184273 0.6118256,1.7262946 1.21875,2.46875 0.6069244,0.742455 1.5537304,1.28125 2.8125,1.28125 l 0.75,0 c 1.539025,0 2.60602,-0.833862 2.84375,-1.84375 C 14.98773,9.021362 14.514188,7.9499291 13.53125,7.5 12.837688,7.1825301 12.077959,7.0881202 11.65625,6.9375 11.44435,6.8618161 11.227491,6.7466442 11.09375,6.625 10.960009,6.5033558 10.90625,6.4275408 10.90625,6.25 c 0,-0.2149566 0.0774,-0.3870447 0.1875,-0.53125 0.110098,-0.1442053 0.273006,-0.2355288 0.3125,-0.25 0.868529,-0.3182429 1.72101,-0.052139 2.28125,0.9375 l 1.25,-0.6875 C 14.088688,4.219363 12.401837,3.5769929 10.90625,4.125 10.541168,4.2587716 10.209462,4.4875351 9.9375,4.84375 9.6655376,5.1999649 9.46875,5.6889206 9.46875,6.25 c 0,0.6054296 0.3069175,1.1197652 0.65625,1.4375 0.349332,0.3177348 0.743629,0.4798591 1.0625,0.59375 0.670147,0.239354 1.389348,0.3349161 1.75,0.5 0.326483,0.1494442 0.48691,0.594851 0.40625,0.9375 -0.08066,0.342649 -0.333591,0.71875 -1.4375,0.71875 l -0.75,0 c -0.897496,0 -1.2954403,-0.27039 -1.6875,-0.75 C 9.0766903,9.2078904 8.7638313,8.4672427 8.46875,7.65625 8.1736687,6.8452573 7.8823295,5.9612134 7.3125,5.21875 6.7426705,4.4762866 5.802298,3.90625 4.59375,3.90625 z"
     style="font-size:medium;font-style:normal;font-variant:normal;font-weight:normal;font-stretch:normal;text-indent:0;text-align:start;text-decoration:none;line-height:normal;letter-spacing:normal;word-spacing:normal;text-transform:none;direction:ltr;block-progression:tb;writing-mode:lr-tb;text-anchor:start;baseline-shift:baseline;color:#000000;fill:#27303a;fill-opacity:0.753280819999999968;fill-rule:nonzero;stroke:none;stroke-width:1;marker:none;visibility:visible;display:inline;overflow:visible;enable-background:accumulate;font-family:Sans;-inkscape-font-specification:Sans" />
  <path
     style="font-size:medium;font-style:normal;font-variant:normal;font-weight:normal;font-stretch:normal;text-indent:0;text-align:start;text-decoration:none;line-height:normal;letter-spacing:normal;word-spacing:normal;text-transform:none;direction:ltr;block-progression:tb;writing-mode:lr-tb;text-anchor:start;baseline-shift:baseline;color:#000000;fill:#f1f3f5;fill-opacity:0.90288714000000003;fill-rule:nonzero;stroke:none;stroke-width:2;marker:none;visibility:visible;display:inline;overflow:visible;enable-background:accumulate;font-family:Sans;-inkscape-font-specification:Sans"
     d="M 4.59375 2.71875 C 3.2337227 2.71875 1.972371 3.2503786 1.09375 4.21875 C 0.22239616 5.1791119 -0.21875 6.4766954 -0.21875 7.84375 L -0.21875 8.15625 C -0.21875 10.089144 0.86066087 11.705254 2.34375 12.5 C 3.812196 13.286899 5.6125444 13.280993 7.1875 12.5 A 1.20012 1.20012 0 0 0 7.84375 11.6875 C 8.6634657 12.47511 9.7749754 13.0625 11.15625 13.0625 L 11.90625 13.0625 C 13.878725 13.0625 15.518771 11.958527 15.90625 10.3125 C 16.182487 9.1390333 15.668593 8.0199439 14.8125 7.1875 L 15.53125 6.78125 A 1.20012 1.20012 0 0 0 15.96875 5.125 C 14.856545 3.1603415 12.55372 2.2474839 10.5 3 C 9.9404214 3.2050381 9.3759297 3.5916774 8.96875 4.125 C 8.7454912 4.4174232 8.7514388 4.8679021 8.625 5.25 C 8.4792813 4.9852843 8.4498908 4.7604492 8.25 4.5 C 7.4725606 3.4870298 6.1796345 2.71875 4.59375 2.71875 z M 4.59375 3.90625 C 5.802298 3.90625 6.7426705 4.4762866 7.3125 5.21875 C 7.8823295 5.9612134 8.1736687 6.8452573 8.46875 7.65625 C 8.7638313 8.4672427 9.0766903 9.2078904 9.46875 9.6875 C 9.8608097 10.16711 10.258754 10.4375 11.15625 10.4375 L 11.90625 10.4375 C 13.010159 10.4375 13.26309 10.061399 13.34375 9.71875 C 13.42441 9.376101 13.263983 8.9306942 12.9375 8.78125 C 12.576848 8.6161661 11.857647 8.520604 11.1875 8.28125 C 10.868629 8.1673591 10.474332 8.0052348 10.125 7.6875 C 9.7756675 7.3697652 9.46875 6.8554296 9.46875 6.25 C 9.46875 5.6889206 9.6655376 5.1999649 9.9375 4.84375 C 10.209462 4.4875351 10.541168 4.2587716 10.90625 4.125 C 12.401837 3.5769929 14.088688 4.219363 14.9375 5.71875 L 13.6875 6.40625 C 13.12726 5.416611 12.274779 5.1505071 11.40625 5.46875 C 11.366756 5.4832212 11.203848 5.5745447 11.09375 5.71875 C 10.98365 5.8629553 10.90625 6.0350434 10.90625 6.25 C 10.90625 6.4275408 10.960009 6.5033558 11.09375 6.625 C 11.227491 6.7466442 11.44435 6.8618161 11.65625 6.9375 C 12.077959 7.0881202 12.837688 7.1825301 13.53125 7.5 C 14.514188 7.9499291 14.98773 9.021362 14.75 10.03125 C 14.51227 11.041138 13.445275 11.875 11.90625 11.875 L 11.15625 11.875 C 9.8974804 11.875 8.9506744 11.336205 8.34375 10.59375 C 7.7368256 9.8512946 7.4227864 8.9434273 7.125 8.125 C 6.8272136 7.3065727 6.555587 6.5733515 6.1875 6.09375 C 5.819413 5.6141485 5.4193323 5.34375 4.59375 5.34375 C 3.9014027 5.34375 3.4064495 5.5864743 3.03125 6 C 2.6560505 6.4135257 2.40625 7.0194869 2.40625 7.84375 L 2.40625 8.15625 C 2.40625 9.1525055 2.8718084 9.7861275 3.5625 10.15625 C 4.2531916 10.526372 5.1939847 10.571436 6.03125 10.15625 L 6.65625 11.4375 C 5.4103199 12.055335 4.0178904 12.033197 2.90625 11.4375 C 1.7946096 10.841803 0.96875 9.6455082 0.96875 8.15625 L 0.96875 7.84375 C 0.96875 6.7290662 1.320392 5.7458372 1.96875 5.03125 C 2.617108 4.3166628 3.5475556 3.90625 4.59375 3.90625 z M 4.59375 6.53125 C 5.1573126 6.53125 5.0049773 6.493246 5.25 6.8125 C 5.432034 7.0496825 5.7036429 7.7167509 6 8.53125 C 6.0481787 8.6636628 6.1661619 8.8555733 6.21875 9 A 1.20012 1.20012 0 0 0 5.5 9.09375 C 5.014232 9.3346343 4.4515699 9.2687496 4.125 9.09375 C 3.7389922 8.8868991 3.59375 8.7786589 3.59375 8.15625 L 3.59375 7.84375 C 3.59375 7.2619343 3.7449484 6.9902784 3.90625 6.8125 C 4.0855721 6.6148604 4.1818681 6.53125 4.59375 6.53125 z "
     id="path8" />
</svg>

<?xml version="1.0" encoding="UTF-8"?>
<!-- Created with Inkscape (http://www.inkscape.org/) -->
<svg width="16" height="16" version="1.1" xmlns="http://www.w3.org/2000/svg" xmlns:cc="http://creativecommons.org/ns#" xmlns:dc="http://purl.org/dc/elements/1.1/" xmlns:rdf="http://www.w3.org/1999/02/22-rdf-syntax-ns#">
	<defs>
		<style id="current-color-scheme" type="text/css">.ColorScheme-Text {color:#090d11;}.ColorScheme-Background{color:#ffffff;}</style>
	</defs>
	<metadata>
		<rdf:RDF>
			<cc:Work rdf:about="">
				<dc:format>image/svg+xml</dc:format>
				<dc:type rdf:resource="http://purl.org/dc/dcmitype/StillImage"/>
			</cc:Work>
		</rdf:RDF>
	</metadata>
	<path id="a" class="ColorScheme-Background" d="m4.5938 2.7188c-1.36 0-2.6214 0.53163-3.5 1.5-0.87135 0.96036-1.3125 2.2579-1.3125 3.625v0.3125c0 1.9329 1.0794 3.549 2.5625 4.3438 1.4684 0.7869 3.2688 0.78099 4.8438 0 0.33131-0.15646 0.573-0.45569 0.65625-0.8125 0.81972 0.78761 1.9312 1.375 3.3125 1.375h0.75c1.9725 0 3.6125-1.104 4-2.75 0.27624-1.1735-0.23766-2.2926-1.0938-3.125l0.71875-0.40625c0.58358-0.33241 0.78079-1.079 0.4375-1.6562-1.1122-1.9647-3.415-2.8775-5.4688-2.125-0.55958 0.20504-1.1241 0.59168-1.5312 1.125-0.22326 0.29242-0.21731 0.7429-0.34375 1.125-0.14572-0.26472-0.17511-0.48955-0.375-0.75-0.77744-1.013-2.0704-1.7812-3.6562-1.7812zm0 1.1875c1.2085 0 2.1489 0.57004 2.7188 1.3125s0.86117 1.6265 1.1562 2.4375 0.60794 1.5516 1 2.0312c0.39206 0.47961 0.79 0.75 1.6875 0.75h0.75c1.1039 0 1.3568-0.3761 1.4375-0.71875s-0.07977-0.78806-0.40625-0.9375c-0.36065-0.16508-1.0799-0.26065-1.75-0.5-0.31887-0.11389-0.71317-0.27602-1.0625-0.59375-0.34933-0.31773-0.65625-0.83207-0.65625-1.4375 0-0.56108 0.19679-1.05 0.46875-1.4062 0.27196-0.35621 0.60367-0.58498 0.96875-0.71875 1.4956-0.54801 3.1824 0.094363 4.0312 1.5938l-1.25 0.6875c-0.56024-0.98964-1.4127-1.2557-2.2812-0.9375-0.03949 0.014471-0.2024 0.10579-0.3125 0.25-0.1101 0.14421-0.1875 0.31629-0.1875 0.53125 0 0.17754 0.05376 0.25336 0.1875 0.375 0.13374 0.12164 0.3506 0.23682 0.5625 0.3125 0.42171 0.15062 1.1814 0.24503 1.875 0.5625 0.98294 0.44993 1.4565 1.5214 1.2188 2.5312s-1.3047 1.8438-2.8438 1.8438h-0.75c-1.2588 0-2.2056-0.5388-2.8125-1.2812-0.60692-0.74246-0.92096-1.6503-1.2188-2.4688s-0.56941-1.5516-0.9375-2.0312-0.76817-0.75-1.5938-0.75c-0.69235 0-1.1873 0.24272-1.5625 0.65625s-0.625 1.0195-0.625 1.8438v0.3125c0 0.99626 0.46556 1.6299 1.1562 2 0.69069 0.37012 1.6315 0.41519 2.4688 0l0.625 1.2812c-1.2459 0.61784-2.6384 0.5957-3.75 0s-1.9375-1.792-1.9375-3.2812v-0.3125c0-1.1147 0.35164-2.0979 1-2.8125s1.5788-1.125 2.625-1.125zm0 2.625c0.56356 0 0.41123-0.038004 0.65625 0.28125 0.18203 0.23718 0.45364 0.90425 0.75 1.7188 0.048179 0.13241 0.16616 0.32432 0.21875 0.46875-0.24352-0.043577-0.49456-0.010833-0.71875 0.09375-0.48577 0.24088-1.0484 0.175-1.375 0-0.38601-0.20685-0.53125-0.31509-0.53125-0.9375v-0.3125c0-0.58182 0.1512-0.85347 0.3125-1.0312 0.17932-0.19764 0.27562-0.28125 0.6875-0.28125z" style="fill-opacity:.5;fill:currentColor"/>
	<path id="d" class="ColorScheme-Text" d="m4.5938 3.9062c-1.0462 0-1.9766 0.41041-2.625 1.125s-1 1.6978-1 2.8125v0.3125c0 1.4893 0.82586 2.6856 1.9375 3.2812s2.5041 0.61784 3.75 0l-0.625-1.2812c-0.83727 0.41519-1.7781 0.37012-2.4688 0-0.69069-0.37012-1.1562-1.0037-1.1562-2v-0.3125c0-0.82426 0.2498-1.4302 0.625-1.8438s0.87015-0.65625 1.5625-0.65625c0.82558 0 1.2257 0.2704 1.5938 0.75s0.63971 1.2128 0.9375 2.0312 0.61183 1.7263 1.2188 2.4688c0.60692 0.74246 1.5537 1.2812 2.8125 1.2812h0.75c1.539 0 2.606-0.83386 2.8438-1.8438s-0.23581-2.0813-1.2188-2.5312c-0.69356-0.31747-1.4533-0.41188-1.875-0.5625-0.2119-0.075684-0.42876-0.19086-0.5625-0.3125s-0.1875-0.19746-0.1875-0.375c0-0.21496 0.0774-0.38704 0.1875-0.53125 0.1101-0.14421 0.27301-0.23553 0.3125-0.25 0.86853-0.31824 1.721-0.052139 2.2812 0.9375l1.25-0.6875c-0.84881-1.4994-2.5357-2.1418-4.0312-1.5938-0.36508 0.13377-0.69679 0.36254-0.96875 0.71875-0.27196 0.35621-0.46875 0.84517-0.46875 1.4062 0 0.60543 0.30692 1.1198 0.65625 1.4375 0.34933 0.31773 0.74363 0.47986 1.0625 0.59375 0.67015 0.23935 1.3893 0.33492 1.75 0.5 0.32648 0.14944 0.48691 0.59485 0.40625 0.9375s-0.33359 0.71875-1.4375 0.71875h-0.75c-0.8975 0-1.2954-0.27039-1.6875-0.75-0.39206-0.47961-0.70492-1.2203-1-2.0312s-0.58642-1.695-1.1562-2.4375-1.5102-1.3125-2.7188-1.3125z" style="fill-opacity:.75;fill:currentColor"/>
</svg>
